X:134
T:Trip to Athlone, The
R:jig
Z:Transcribed by Dave Marshall
M:6/8
K:D
|:ABA D2d|dcA AGE|ABA ABc|dAB cde|
ABA D2d|dcA AGE|~G3 Ade| fdc d3:|
|:fed edc|AdB cde|~f3 gfg|ABc def|
~g3 age|dcA AGF|GFG Ade| fdc d3:|
